img/brackets_inspect.svg

<svg xmlns="http://www.w3.org/2000/svg" xmlns:xlink="http://www.w3.org/1999/xlink" width="387.037" height="612"><path fill="#fff" d="M342.765 9.713l-297.319 1.079c-20.977.064-37.93 17.148-37.849 38.115l1.885 518.569c.087 20.996 17.145 37.943 38.125 37.866l297.302-1.09c20.985-.069 37.938-17.153 37.853-38.128l-1.868-518.557c-.09-20.985-17.153-37.94-38.129-37.854zm-115.407 522.043c.079 20.612-16.564 37.375-37.185 37.459-20.612.079-37.38-16.573-37.446-37.181-.088-20.628 16.571-37.401 37.18-37.467 20.622-.063 37.393 16.576 37.451 37.189zm103.961-69.663l-270.628.981-1.447-396.625 270.628-.981 1.447 396.625z"/><defs><path id="a" d="M71.825 78.047h231.387v231.387h-231.387z"/></defs><clipPath id="b"><use xlink:href="#a" overflow="visible"/></clipPath><g clip-path="url(#b)"><defs><path id="c" d="M71.825 78.047h231.387v231.387h-231.387z"/></defs><clipPath id="d"><use xlink:href="#c" overflow="visible"/></clipPath><g clip-path="url(#d)"><defs><path id="e" d="M71.825 78.047h231.387v231.387h-231.387z"/></defs><clipPath id="f"><use xlink:href="#e" overflow="visible"/></clipPath><g clip-path="url(#f)"><defs><path id="g" d="M70.958 82.585h233.411v227.988h-233.411z"/></defs><clipPath id="h"><use xlink:href="#g" overflow="visible"/></clipPath><g opacity=".65" clip-path="url(#h)"><defs><path id="i" d="M70.958 82.585h233.411v227.988h-233.411z"/></defs><clipPath><use xlink:href="#i" overflow="visible"/></clipPath></g></g></g><path clip-path="url(#d)" fill-rule="evenodd" clip-rule="evenodd" fill="#512F1E" d="M79.092 88.007h216.926v211.502h-216.926z"/><g clip-path="url(#d)"><defs><path id="j" d="M71.825 78.047h231.387v231.387h-231.387z"/></defs><clipPath id="k"><use xlink:href="#j" overflow="visible"/></clipPath><g opacity=".35" clip-path="url(#k)"><defs><path id="l" d="M79.092 103.372h216.926v193.425h-216.926z"/></defs><clipPath id="m"><use xlink:href="#l" overflow="visible"/></clipPath><g clip-path="url(#m)"><defs><path id="n" d="M79.092 291.374h216.926v5.423h-216.926v-5.423zm0-23.5h216.926v5.423h-216.926v-5.423zm0-47h216.926v5.423h-216.926v-5.423zm0-23.501h216.926v5.423h-216.926v-5.423zm0-23.5h216.926v5.423h-216.926v-5.423zm0-23.5h216.926v5.423h-216.926v-5.423zm0-23.5h216.926v5.423h-216.926v-5.423zm0-23.501h216.926v5.423h-216.926v-5.423zm0 141.002h216.926v5.423h-216.926v-5.423z"/></defs><clipPath id="p"><use xlink:href="#n" overflow="visible"/></clipPath><defs><filter id="o" filterUnits="userSpaceOnUse" x="79.092" y="103.372" width="216.926" height="193.425"><feColorMatrix values="1 0 0 0 0 0 1 0 0 0 0 0 1 0 0 0 0 0 1 0"/></filter></defs><mask maskUnits="userSpaceOnUse" x="79.092" y="103.372" width="216.926" height="193.425" id="r"><g filter="url(#o)"><linearGradient id="q" gradientUnits="userSpaceOnUse" x1="-120.901" y1="-1.338" x2="-119.997" y2="-1.338" gradientTransform="matrix(240 0 0 -240 29095.287 -120.981)"><stop offset="0" stop-color="#1A1A1A"/><stop offset=".501" stop-color="#fff"/><stop offset="1" stop-color="#1A1A1A"/></linearGradient><path clip-path="url(#p)" fill="url(#q)" d="M79.092 103.372h216.926v193.425h-216.926z"/></g></mask><linearGradient id="s" gradientUnits="userSpaceOnUse" x1="-120.901" y1="-1.338" x2="-119.997" y2="-1.338" gradientTransform="matrix(240 0 0 -240 29095.287 -120.981)"><stop offset="0" stop-color="#F8AA1B"/><stop offset=".501" stop-color="#EFA41D"/><stop offset="1" stop-color="#F8AA1B"/></linearGradient><path clip-path="url(#p)" mask="url(#r)" fill="url(#s)" d="M79.092 103.372h216.926v193.425h-216.926z"/></g></g><g opacity=".18" clip-path="url(#k)"><defs><path id="t" d="M79.092 91.622h216.926v193.425h-216.926z"/></defs><clipPath id="u"><use xlink:href="#t" overflow="visible"/></clipPath><path clip-path="url(#u)" fill-rule="evenodd" clip-rule="evenodd" fill="#F8AA1B" d="M79.092 256.124h216.926v5.423h-216.926v-5.423zm0 23.5h216.926v5.423h-216.926v-5.423zm0-70.501h216.926v5.423h-216.926v-5.423zm0 23.501h216.926v5.423h-216.926v-5.423zm0-47.001h216.926v5.423h-216.926v-5.423zm0-23.5h216.926v5.423h-216.926v-5.423zm0-23.5h216.926v5.423h-216.926v-5.423zm0-23.501h216.926v5.423h-216.926v-5.423zm0-23.5h216.926v5.423h-216.926v-5.423z"/></g><path clip-path="url(#k)" fill-rule="evenodd" clip-rule="evenodd" fill="#F8AA1B" d="M162.247 236.879c0 .878-.145 1.167-1.166 1.167h-13.937c-.877 0-1.166-.434-1.166-1.167v-95.283c0-.878.434-1.167 1.166-1.167h14.082c.732 0 1.021.289 1.021 1.021v95.429zm18.077-55.929c0-.878 0-3.933-.434-9.02 0-.587-.217-.732.362-1.021 7.421-2.766 17.453-5.822 27.495-5.822 12.376 0 25.905 4.799 25.905 26.05v45.742c0 .878-.288 1.167-1.02 1.167h-14.082c-.878 0-1.167-.434-1.167-1.167v-44.586c0-8.433-3.48-13.088-12.212-13.088-3.787 0-6.861.723-9.481 1.601v56.219c0 .587-.288 1.021-.877 1.021h-13.467c-.732 0-1.021-.289-1.021-1.021v-56.075z"/></g></g></svg>

<?xml version="1.0" encoding="utf-8"?>
<!-- Generator: Adobe Illustrator 17.0.0, SVG Export Plug-In . SVG Version: 6.00 Build 0)  -->
<!DOCTYPE svg PUBLIC "-//W3C//DTD SVG 1.1//EN" "http://www.w3.org/Graphics/SVG/1.1/DTD/svg11.dtd">
<svg version="1.1" id="Layer_1" xmlns="http://www.w3.org/2000/svg" xmlns:xlink="http://www.w3.org/1999/xlink" x="0px" y="0px"
	 width="387.037px" height="612px" viewBox="0 0 387.037 612" enable-background="new 0 0 387.037 612" xml:space="preserve">
<path id="mobility" fill="#FFFFFF" d="M342.765,9.713L45.446,10.792C24.469,10.856,7.516,27.94,7.597,48.907l1.885,518.569
	c0.087,20.996,17.145,37.943,38.125,37.866l297.302-1.09c20.985-0.069,37.938-17.153,37.853-38.128l-1.868-518.557
	C380.804,26.582,363.741,9.627,342.765,9.713z M227.358,531.756c0.079,20.612-16.564,37.375-37.185,37.459
	c-20.612,0.079-37.38-16.573-37.446-37.181c-0.088-20.628,16.571-37.401,37.18-37.467
	C210.529,494.504,227.3,511.143,227.358,531.756z M331.319,462.093l-270.628,0.981L59.244,66.449l270.628-0.981L331.319,462.093z"/>
<g>
	<g>
		<defs>
			<rect id="SVGID_1_" x="71.825" y="78.047" width="231.387" height="231.387"/>
		</defs>
		<clipPath id="SVGID_2_">
			<use xlink:href="#SVGID_1_"  overflow="visible"/>
		</clipPath>
		<g clip-path="url(#SVGID_2_)">
			<defs>
				<rect id="SVGID_3_" x="71.825" y="78.047" width="231.387" height="231.387"/>
			</defs>
			<clipPath id="SVGID_4_">
				<use xlink:href="#SVGID_3_"  overflow="visible"/>
			</clipPath>
			<g clip-path="url(#SVGID_4_)">
				<defs>
					<rect id="SVGID_5_" x="71.825" y="78.047" width="231.387" height="231.387"/>
				</defs>
				<clipPath id="SVGID_6_">
					<use xlink:href="#SVGID_5_"  overflow="visible"/>
				</clipPath>
				<g clip-path="url(#SVGID_6_)">
					<g>
						<defs>
							<rect id="SVGID_7_" x="70.958" y="82.585" width="233.411" height="227.988"/>
						</defs>
						<clipPath id="SVGID_8_">
							<use xlink:href="#SVGID_7_"  overflow="visible"/>
						</clipPath>
						<g opacity="0.65" clip-path="url(#SVGID_8_)">
							<g>
								<defs>
									<rect id="SVGID_9_" x="70.958" y="82.585" width="233.411" height="227.988"/>
								</defs>
								<clipPath id="SVGID_10_">
									<use xlink:href="#SVGID_9_"  overflow="visible"/>
								</clipPath>
							</g>
						</g>
					</g>
				</g>
			</g>
			
				<rect x="79.092" y="88.007" clip-path="url(#SVGID_4_)" fill-rule="evenodd" clip-rule="evenodd" fill="#512F1E" width="216.926" height="211.502"/>
			<g clip-path="url(#SVGID_4_)">
				<defs>
					<rect id="SVGID_11_" x="71.825" y="78.047" width="231.387" height="231.387"/>
				</defs>
				<clipPath id="SVGID_12_">
					<use xlink:href="#SVGID_11_"  overflow="visible"/>
				</clipPath>
				<g opacity="0.35" clip-path="url(#SVGID_12_)">
					<g>
						<defs>
							<rect id="SVGID_13_" x="79.092" y="103.372" width="216.926" height="193.425"/>
						</defs>
						<clipPath id="SVGID_14_">
							<use xlink:href="#SVGID_13_"  overflow="visible"/>
						</clipPath>
						<g clip-path="url(#SVGID_14_)">
							<defs>
								<path id="SVGID_15_" d="M79.092,291.374h216.926v5.423H79.092V291.374z M79.092,267.874h216.926v5.423H79.092V267.874z
									 M79.092,220.874h216.926v5.423H79.092V220.874z M79.092,197.373h216.926v5.423H79.092V197.373z M79.092,173.873h216.926
									v5.423H79.092V173.873z M79.092,150.373h216.926v5.423H79.092V150.373z M79.092,126.873h216.926v5.423H79.092V126.873z
									 M79.092,103.372h216.926v5.423H79.092V103.372z M79.092,244.374h216.926v5.423H79.092V244.374z"/>
							</defs>
							<clipPath id="SVGID_16_">
								<use xlink:href="#SVGID_15_"  overflow="visible"/>
							</clipPath>
							<defs>
								
									<filter id="Adobe_OpacityMaskFilter" filterUnits="userSpaceOnUse" x="79.092" y="103.372" width="216.926" height="193.425">
									<feColorMatrix  type="matrix" values="1 0 0 0 0  0 1 0 0 0  0 0 1 0 0  0 0 0 1 0"/>
								</filter>
							</defs>
							<mask maskUnits="userSpaceOnUse" x="79.092" y="103.372" width="216.926" height="193.425" id="SVGID_17_">
								<g filter="url(#Adobe_OpacityMaskFilter)">
									
										<linearGradient id="SVGID_18_" gradientUnits="userSpaceOnUse" x1="-120.9006" y1="-1.3378" x2="-119.9967" y2="-1.3378" gradientTransform="matrix(240.0005 0 0 -240.0005 29095.2871 -120.9814)">
										<stop  offset="0" style="stop-color:#1A1A1A"/>
										<stop  offset="0.501" style="stop-color:#FFFFFF"/>
										<stop  offset="1" style="stop-color:#1A1A1A"/>
									</linearGradient>
									<rect x="79.092" y="103.372" clip-path="url(#SVGID_16_)" fill="url(#SVGID_18_)" width="216.926" height="193.425"/>
								</g>
							</mask>
							
								<linearGradient id="SVGID_19_" gradientUnits="userSpaceOnUse" x1="-120.9006" y1="-1.3378" x2="-119.9967" y2="-1.3378" gradientTransform="matrix(240.0005 0 0 -240.0005 29095.2871 -120.9814)">
								<stop  offset="0" style="stop-color:#F8AA1B"/>
								<stop  offset="0.501" style="stop-color:#EFA41D"/>
								<stop  offset="1" style="stop-color:#F8AA1B"/>
							</linearGradient>
							
								<rect x="79.092" y="103.372" clip-path="url(#SVGID_16_)" mask="url(#SVGID_17_)" fill="url(#SVGID_19_)" width="216.926" height="193.425"/>
						</g>
					</g>
				</g>
				<g opacity="0.18" clip-path="url(#SVGID_12_)">
					<g>
						<defs>
							<rect id="SVGID_20_" x="79.092" y="91.622" width="216.926" height="193.425"/>
						</defs>
						<clipPath id="SVGID_21_">
							<use xlink:href="#SVGID_20_"  overflow="visible"/>
						</clipPath>
						<path clip-path="url(#SVGID_21_)" fill-rule="evenodd" clip-rule="evenodd" fill="#F8AA1B" d="M79.092,256.124h216.926v5.423
							H79.092V256.124z M79.092,279.624h216.926v5.423H79.092V279.624z M79.092,209.123h216.926v5.423H79.092V209.123z
							 M79.092,232.624h216.926v5.423H79.092V232.624z M79.092,185.623h216.926v5.423H79.092V185.623z M79.092,162.123h216.926
							v5.423H79.092V162.123z M79.092,138.623h216.926v5.423H79.092V138.623z M79.092,115.122h216.926v5.423H79.092V115.122z
							 M79.092,91.622h216.926v5.423H79.092V91.622z"/>
					</g>
				</g>
				<path clip-path="url(#SVGID_12_)" fill-rule="evenodd" clip-rule="evenodd" fill="#F8AA1B" d="M162.247,236.879
					c0,0.878-0.145,1.167-1.166,1.167h-13.937c-0.877,0-1.166-0.434-1.166-1.167v-95.283c0-0.878,0.434-1.167,1.166-1.167h14.082
					c0.732,0,1.021,0.289,1.021,1.021V236.879z M180.324,180.95c0-0.878,0-3.933-0.434-9.02c0-0.587-0.217-0.732,0.362-1.021
					c7.421-2.766,17.453-5.822,27.495-5.822c12.376,0,25.905,4.799,25.905,26.05v45.742c0,0.878-0.288,1.167-1.02,1.167H218.55
					c-0.878,0-1.167-0.434-1.167-1.167v-44.586c0-8.433-3.48-13.088-12.212-13.088c-3.787,0-6.861,0.723-9.481,1.601v56.219
					c0,0.587-0.288,1.021-0.877,1.021h-13.467c-0.732,0-1.021-0.289-1.021-1.021V180.95z"/>
			</g>
		</g>
	</g>
</g>
</svg>
